app/assets/v2/images/avatar/Accessories/HatShort-backwardscap.svg

<svg id="Layer_1" xmlns="http://www.w3.org/2000/svg" viewBox="0 0 899.2 1415.7"><style>.st1{fill:#12cad8;stroke:#333;stroke-width:28.232;stroke-miterlimit:10}.st2{fill:#333}</style><path fill="none" d="M27 208.2h845.2v483H27z"/><path class="st1" d="M709.1 310.4l-38.9-33.7c-25.6-22.1-57.1-34.1-89.6-34.1h-262c-32.5 0-64 12-89.6 34.1l-38.9 33.7c-26.7 23.1-42.3 58.5-42.3 95.9v125.4l199.9-53.2c.3-.1.6-.2.9-.2-.3.1-.5.1-.8.2V456c0-18.7 5.3-36.4 14.3-48l13.1-16.8c8.6-11.1 19.3-17.1 30.2-17.1h88.4c11 0 21.6 6 30.2 17.1l13.1 16.8c9 11.6 14.3 29.2 14.3 48v21.6l-3.2-.8 203.2 49.4V406.3c.1-37.4-15.5-72.8-42.3-95.9z"/><path class="st1" d="M624.8 310.4l-26.3-33.7c-17.3-22.1-38.5-34.1-60.5-34.1H361.2c-21.9 0-43.2 12-60.5 34.1l-26.3 33.7c-18 23.1-28.6 58.5-28.6 95.9v99.3l101.7-27.1c.1 0 .2-.1.4-.1-.1 0-.2 0-.2.1V456c0-18.7 5.3-36.4 14.3-48l13.1-16.8c8.6-11.1 19.3-17.1 30.2-17.1h88.4c11 0 21.6 6 30.2 17.1L537 408c9 11.6 14.3 29.2 14.3 48v21.6l-3.2-.8 105.1 25.5v-96c.1-37.4-10.4-72.8-28.4-95.9z"/><path class="st2" d="M450.6 208.2c-26.2 0-47.5 9.7-47.5 36H498c0-26.2-21.2-36-47.4-36z"/><path d="M390.2 470.2c-.2 0-.4 0-.6.1.2-.1.4-.1.6-.1zm-5.8.8s-.1 0 0 0c-.1 0 0 0 0 0zm11.4-1.5c-.3 0-.6.1-.9.1.3 0 .6-.1.9-.1zm-16.5 2.3h-.2.2zm145 .1c-3.2-.5-6.4-1-9.7-1.5 3.2.5 6.4 1 9.7 1.5zm-150.4.8s-.1 0 0 0c-.1 0 0 0 0 0zm46.1-5c-1.3 0-2.6.1-3.9.2 1.3-.1 2.6-.1 3.9-.2zm-6.3.3c-1 .1-2 .1-3 .2 1-.1 2-.1 3-.2zm-45 5.7h-.2.2zm32.8-4.8c-.5 0-.9.1-1.4.1.5 0 1 0 1.4-.1zm5.9-.5c-.7 0-1.3.1-2 .1.7 0 1.4 0 2-.1zm56.5-.9c-14.2 0-28.4-.3-42.5.2 29.2-1 59.4-1.3 88.4 2.2-15.3-1.9-30.6-2.4-45.9-2.4zm-100.3 7.2c-.1 0-.2 0-.3.1.1 0 .2-.1.3-.1zm-10.2 2.4c-.2 0-.3.1-.5.1.2 0 .3-.1.5-.1zm5.1-1.2c-.1 0-.3.1-.4.1.1-.1.3-.1.4-.1zm-5.6 1.3c-1.5.4-2.9.7-4.4 1.1 1.5-.4 3-.7 4.4-1.1zm52.6-8.6c-1.3.1-2.6.2-3.9.4 1.2-.2 2.5-.3 3.9-.4zm5.3-.4c-1.1.1-2.2.2-3.3.2 1-.1 2.1-.1 3.3-.2zm-37 4.5c-1.7.3-3.4.6-5.1 1 1.7-.4 3.4-.7 5.1-1zm47.6-5c-.5 0-.9 0-1.4.1.5-.1.9-.1 1.4-.1zm-5.3.2c-.8 0-1.6.1-2.4.1.8 0 1.6-.1 2.4-.1zm-15.9 1.2c-1.5.1-2.9.3-4.4.5 1.4-.2 2.9-.4 4.4-.5zm-15.9 1.9c-1.7.2-3.4.5-5.1.8 1.7-.3 3.4-.6 5.1-.8zm-21 3.8c-1.6.3-3.2.7-4.8 1.1 1.6-.4 3.2-.8 4.8-1.1zm5.3-1.1c-1.6.3-3.3.7-4.9 1 1.6-.3 3.2-.7 4.9-1zm10.5-1.9c-1.7.3-3.4.6-5.2.9 1.7-.3 3.4-.6 5.2-.9zm10.5-1.5c-1.7.2-3.5.5-5.2.7 1.7-.3 3.5-.5 5.2-.7zm-31.5 5.7c-1.6.4-3.2.7-4.7 1.1 1.6-.4 3.1-.8 4.7-1.1zm36.8-6.4c-1.6.2-3.1.4-4.7.6 1.6-.2 3.1-.4 4.7-.6z" fill="gray" stroke="#333" stroke-width="28.232" stroke-miterlimit="10"/><path d="M551.5 477.6c0-26.1.1-50.8-16.7-72.6-7.6-9.9-15.1-21.5-26.6-27.3-7.4-3.7-14.8-3.6-22.7-3.6h-66.8c-6 0-12.3-.5-18.2.4-14.7 2.5-23.4 14.1-31.9 25-10.4 13.3-17.8 26.5-20 43.6-1.5 11.6-.8 23.6-.8 35.3 29.3-7.8 59.2-11 89.6-11 38.5.1 76.2.9 114.1 10.2z" fill="none" stroke="#333" stroke-width="28.232" stroke-miterlimit="10"/><path class="st2" d="M549.1 438.1s-93.5-34.5-198.4 1.2v34.4h200.7l-2.3-35.6z"/></svg>

<svg id="Layer_1" xmlns="http://www.w3.org/2000/svg" viewBox="0 0 899.2 1415.7"><style>.st1{fill:#12cad8;stroke:#333;stroke-width:28.232;stroke-miterlimit:10}.st2{fill:#333}.st3{fill:gray;stroke:#333;stroke-width:28.232;stroke-miterlimit:10}</style><path fill="none" d="M27 208.2h845.2v483H27z"/><path class="st1" d="M709.1 310.4l-38.9-33.7c-25.6-22.1-57.1-34.1-89.6-34.1h-262c-32.5 0-64 12-89.6 34.1l-38.9 33.7c-26.7 23.1-42.3 58.5-42.3 95.9v125.4l199.9-53.2c.3-.1.6-.2.9-.2-.3.1-.5.1-.8.2V456c0-18.7 5.3-36.4 14.3-48l13.1-16.8c8.6-11.1 19.3-17.1 30.2-17.1h88.4c11 0 21.6 6 30.2 17.1l13.1 16.8c9 11.6 14.3 29.2 14.3 48v21.6l-3.2-.8 203.2 49.4V406.3c.1-37.4-15.5-72.8-42.3-95.9z"/><path class="st1" d="M624.8 310.4l-26.3-33.7c-17.3-22.1-38.5-34.1-60.5-34.1H361.2c-21.9 0-43.2 12-60.5 34.1l-26.3 33.7c-18 23.1-28.6 58.5-28.6 95.9v99.3l101.7-27.1c.1 0 .2-.1.4-.1-.1 0-.2 0-.2.1V456c0-18.7 5.3-36.4 14.3-48l13.1-16.8c8.6-11.1 19.3-17.1 30.2-17.1h88.4c11 0 21.6 6 30.2 17.1L537 408c9 11.6 14.3 29.2 14.3 48v21.6l-3.2-.8 105.1 25.5v-96c.1-37.4-10.4-72.8-28.4-95.9z"/><path class="st2" d="M450.6 208.2c-26.2 0-47.5 9.7-47.5 36H498c0-26.2-21.2-36-47.4-36z"/><path class="st3" d="M390.2 470.2c-.2 0-.4 0-.6.1.2-.1.4-.1.6-.1zM384.4 471s-.1 0 0 0c-.1 0 0 0 0 0zM395.8 469.5c-.3 0-.6.1-.9.1.3 0 .6-.1.9-.1zM379.3 471.8h-.2.2zM524.3 471.9c-3.2-.5-6.4-1-9.7-1.5 3.2.5 6.4 1 9.7 1.5zM373.9 472.7s-.1 0 0 0c-.1 0 0 0 0 0zM420 467.7c-1.3 0-2.6.1-3.9.2 1.3-.1 2.6-.1 3.9-.2zM413.7 468c-1 .1-2 .1-3 .2 1-.1 2-.1 3-.2zM368.7 473.7h-.2.2zM401.5 468.9c-.5 0-.9.1-1.4.1.5 0 1 0 1.4-.1zM407.4 468.4c-.7 0-1.3.1-2 .1.7 0 1.4 0 2-.1zM463.9 467.5c-14.2 0-28.4-.3-42.5.2 29.2-1 59.4-1.3 88.4 2.2-15.3-1.9-30.6-2.4-45.9-2.4zM363.6 474.7c-.1 0-.2 0-.3.1.1 0 .2-.1.3-.1zM353.4 477.1c-.2 0-.3.1-.5.1.2 0 .3-.1.5-.1zM358.5 475.9c-.1 0-.3.1-.4.1.1-.1.3-.1.4-.1zM352.9 477.2c-1.5.4-2.9.7-4.4 1.1 1.5-.4 3-.7 4.4-1.1zM405.5 468.6c-1.3.1-2.6.2-3.9.4 1.2-.2 2.5-.3 3.9-.4zM410.8 468.2c-1.1.1-2.2.2-3.3.2 1-.1 2.1-.1 3.3-.2zM373.8 472.7c-1.7.3-3.4.6-5.1 1 1.7-.4 3.4-.7 5.1-1zM421.4 467.7c-.5 0-.9 0-1.4.1.5-.1.9-.1 1.4-.1zM416.1 467.9c-.8 0-1.6.1-2.4.1.8 0 1.6-.1 2.4-.1zM400.2 469.1c-1.5.1-2.9.3-4.4.5 1.4-.2 2.9-.4 4.4-.5zM384.3 471c-1.7.2-3.4.5-5.1.8 1.7-.3 3.4-.6 5.1-.8zM363.3 474.8c-1.6.3-3.2.7-4.8 1.1 1.6-.4 3.2-.8 4.8-1.1zM368.6 473.7c-1.6.3-3.3.7-4.9 1 1.6-.3 3.2-.7 4.9-1zM379.1 471.8c-1.7.3-3.4.6-5.2.9 1.7-.3 3.4-.6 5.2-.9zM389.6 470.3c-1.7.2-3.5.5-5.2.7 1.7-.3 3.5-.5 5.2-.7zM358.1 476c-1.6.4-3.2.7-4.7 1.1 1.6-.4 3.1-.8 4.7-1.1zM394.9 469.6c-1.6.2-3.1.4-4.7.6 1.6-.2 3.1-.4 4.7-.6z"/><path d="M551.5 477.6c0-26.1.1-50.8-16.7-72.6-7.6-9.9-15.1-21.5-26.6-27.3-7.4-3.7-14.8-3.6-22.7-3.6h-66.8c-6 0-12.3-.5-18.2.4-14.7 2.5-23.4 14.1-31.9 25-10.4 13.3-17.8 26.5-20 43.6-1.5 11.6-.8 23.6-.8 35.3 29.3-7.8 59.2-11 89.6-11 38.5.1 76.2.9 114.1 10.2z" fill="none" stroke="#333" stroke-width="28.232" stroke-miterlimit="10"/><path class="st2" d="M549.1 438.1s-93.5-34.5-198.4 1.2v34.4h200.7l-2.3-35.6z"/></svg>
